X: 74
T:Drowsy Maggie
R: Reel
N: page 25
N: heptatonic
M:4/4
L:1/8
K:Edor
|:"Em"~E2BE dEBE|~E2BE "D"AFDF|"Em"~E2BE dEBE|"Bm"BABc "D"dAFD|"Em"~E2BE dEBE|
~E2BG "D"AFDF|"Em"E2BE dEBE|"Bm"BABc "D"dAFA||"D"d2fd "A"c2ec|"D"defg "A7"afge|"D"d2fd "A"c2ec|
"G"BABc "D"dAFA| d2fd "A"c2ec|"G"defg afge|"D"afge fdec|"G"BABc "D"dAFD:|
